X:513
T: ALLES WAS IN LUEFTEN SCHWEBET
N: E1781
O: Europa, Mitteleuropa, Deutschland, Altenburg
R: Scherz - Lied
M: 3/4
L: 1/16
K: F
F2G2 | A4A4B2B2 | e4c4
f2d2 | c6B2A2F2 | G8
F2A2 | c6B2A2F2 | A4G4
F2A2 | c6B2A2F2 | A4G4z4 |
c2c2f2d2d2c2 | c2c2f2d2d2c2 |
d2cBA4(3c2B2G2 | G4F4

@@@ Tune index: 5197
